packages/icons/svg/Fill/cube.svg

<svg fill="none" height="24" viewBox="0 0 24 24" width="24" xmlns="http://www.w3.org/2000/svg"><path clip-rule="evenodd" d="m12 10.503 8.512-3.57799c-.146-.149-.311-.282-.511-.375l-7.2-3.374c-.505-.235-1.097-.235-1.602 0l-7.19999 3.374c-.2.093-.365.226-.511.375zm-.75 1.3241-8.25-3.46796v7.72896c-.005.641.379 1.229.99 1.518l7.2 3.373c.0097.0046.02.0077.0303.0107.0099.003.0199.0059.0297.0103zm1.5 9.17v-9.17l8.25-3.46796v7.73796c0 .639-.387 1.224-.999 1.509l-7.2 3.373c-.0091.0046-.0187.0075-.0285.0104-.0075.0023-.0151.0046-.0225.0076z" fill="#6b7280" fill-rule="evenodd"/></svg>

<svg width="24" height="24" viewBox="0 0 24 24" fill="none" xmlns="http://www.w3.org/2000/svg">
<g id="Icon/Fill/cube">
<path id="Mask" fill-rule="evenodd" clip-rule="evenodd" d="M12 10.5029L20.512 6.9249C20.366 6.7759 20.201 6.6429 20.001 6.5499L12.801 3.1759C12.296 2.9409 11.704 2.9409 11.199 3.1759L3.99905 6.5499C3.79905 6.6429 3.63405 6.7759 3.48805 6.9249L12 10.5029ZM11.25 11.8271L3.00005 8.3591V16.0881C2.99505 16.7291 3.37905 17.3171 3.99005 17.6061L11.19 20.9791C11.1998 20.9837 11.21 20.9867 11.2204 20.9898C11.2303 20.9927 11.2403 20.9957 11.25 21.0001V11.8271ZM12.75 20.9971V11.8271L21 8.3591V16.0971C21 16.7361 20.613 17.3211 20.001 17.6061L12.801 20.9791C12.792 20.9836 12.7823 20.9866 12.7725 20.9895C12.765 20.9918 12.7574 20.9941 12.75 20.9971Z" fill="#000000"/>
</g>
</svg>
